X:0
T:Dennington Bell(e)
C:Played by Dougie at Wheatsheaf
S:Susan Bell <susanbell:tesco.net> tradtunes 2005-5-10
K:D
M:4/4
%Q:240
FG | A2 fe d2 EF | G2 ed c2 EF | G2 ed c2 cB | A>B AG F2 FG |
A2 fe d2 EF | G2 ed c2 EF | G2 ed c2 Bc | d>e fe d2 :|
|: dc | B>B Bd ed cB | A>B Ad f4 | B>A Bd ed cB | AB AF E4 |
A2 fe d2 EF | G2 ed c2 EF | G2 ed c2 Bc | d>e fe d2 :|
